svgs/solid/pump.svg

<svg xmlns="http://www.w3.org/2000/svg" viewBox="0 0 640 512"><!--! Font Awesome Pro 6.4.2 by @fontawesome - https://fontawesome.com License - https://fontawesome.com/license (Commercial License) Copyright 2023 Fonticons, Inc. --><path d="M128 32c0 17.7 14.3 32 32 32H320c17.7 0 32-14.3 32-32s-14.3-32-32-32H160c-17.7 0-32 14.3-32 32zM32 176c-17.7 0-32 14.3-32 32V384c0 17.7 14.3 32 32 32s32-14.3 32-32V208c0-17.7-14.3-32-32-32zm128 48H96V384H320V96H160V224zM431.9 106.7L380.5 141c-17.8 11.9-28.5 31.9-28.5 53.3V413.7c0 21.4 10.7 41.4 28.5 53.3l51.4 34.3c10.5 7 22.9 10.7 35.5 10.7H576c35.3 0 64-28.7 64-64V160c0-35.3-28.7-64-64-64H467.4c-12.6 0-25 3.7-35.5 10.7zM448 208c0-8.8 7.2-16 16-16h96c8.8 0 16 7.2 16 16s-7.2 16-16 16H464c-8.8 0-16-7.2-16-16zm0 96c0-8.8 7.2-16 16-16h96c8.8 0 16 7.2 16 16s-7.2 16-16 16H464c-8.8 0-16-7.2-16-16zm0 96c0-8.8 7.2-16 16-16h96c8.8 0 16 7.2 16 16s-7.2 16-16 16H464c-8.8 0-16-7.2-16-16z"/></svg>

<svg xmlns="http://www.w3.org/2000/svg" viewBox="0 0 640 512"><!--! Font Awesome Pro 6.1.1 by @fontawesome - https://fontawesome.com License - https://fontawesome.com/license (Commercial License) Copyright 2022 Fonticons, Inc. --><path d="M160 224H96v160h224V96H160V224zM32 192C14.4 192 0 206.3 0 224v160c0 17.66 14.4 32 32 32s32-14.34 32-32V224C64 206.3 49.6 192 32 192zM608 96h-140.5C454.7 96 442.2 99.74 432 106.8l-65.6 43.74C357.4 156.4 352 166.4 352 177.1v253.8c0 10.69 5.441 20.67 14.4 26.62L432 501.2C442.2 508.3 454.7 512 467.5 512H608c17.6 0 32-14.34 32-32V128C640 110.3 625.6 96 608 96zM560 416h-96c-8.961 0-16-7.168-16-16s7.039-16 16-16h96c8.961 0 16 7.168 16 16S568.1 416 560 416zM560 320h-96C455 320 448 312.8 448 304S455 288 464 288h96C568.1 288 576 295.2 576 304S568.1 320 560 320zM560 224h-96C455 224 448 216.8 448 208S455 192 464 192h96C568.1 192 576 199.2 576 208S568.1 224 560 224zM320 0H160C142.4 0 128 14.34 128 32s14.4 32 32 32h160c17.6 0 32-14.34 32-32S337.6 0 320 0z"/></svg>
